X:186
T:Spike Island Lasses (reel), The  
B:CRE1.143 (Gearrchaile Oilean Pice)
F:file ID: cre.1/186spike
S:Willie Clancy
M:C
L:1/8
Q:180
R:reel % A-B-C-D-A
K:G
"D modal"
dB|cAGE ADD2|FDAD FDD2|cAGA AG (3EFG|Adde fded|
"5"cAGB ADD2|FDAD FDD2|cAGA AG (3EFG|Addc d3||
g|"9"(3fgf fd efge|fded cAA>g|(3fgf df edcB|A2dc defg|
"13"agfa g2eg|(3fgf ef dcAG|Addc dfed|Adde fded||
"17"cAGB A2Ad|B3G A3d|cAGA A2AG|A2de fded|
"21"cAGB A2A2|AGGF GBdB|cAG2 ADD2|Addc d3||
e|"25"f2ad f2ad|f2ad gee2|f2ad f2ad|fage dcAd|
"29"defg a2ag|(3bag af gfeg|fedf edce|dcde fded||


%%%

